symbols/web/house/materialsymbolsrounded/house_wght600gradN25_24px.svg

<svg xmlns="http://www.w3.org/2000/svg" height="24" width="24"><path d="M11.2 19.975H6.25q-.525 0-.887-.362Q5 19.25 5 18.725V12.1H3.525q-.45 0-.6-.412-.15-.413.175-.688l8.075-7.25q.35-.35.825-.338.475.013.825.338l3 2.65V5.375q0-.525.363-.888.362-.362.887-.362h.675q.525 0 .888.362.362.363.362.888V9.3l1.9 1.7q.325.275.175.688-.15.412-.6.412H19v6.625q0 .525-.362.888-.363.362-.888.362H12.8v-5.7h-1.6ZM7.275 17.7h1.65v-4.5q0-.5.363-.875.362-.375.887-.375h3.65q.525 0 .888.375.362.375.362.875v4.5h1.65v-7.375L12 6.1l-4.725 4.225Zm2.65-7.275h4.15q0-.825-.612-1.4Q12.85 8.45 12 8.45q-.85 0-1.462.575-.613.575-.613 1.4Zm.25 1.525h3.65-3.65Z"/></svg>

<svg xmlns="http://www.w3.org/2000/svg" height="24" width="24"><path d="M11.2 19.975H6.25Q5.725 19.975 5.363 19.613Q5 19.25 5 18.725V12.1H3.525Q3.075 12.1 2.925 11.688Q2.775 11.275 3.1 11L11.175 3.75Q11.525 3.4 12 3.412Q12.475 3.425 12.825 3.75L15.825 6.4V5.375Q15.825 4.85 16.188 4.487Q16.55 4.125 17.075 4.125H17.75Q18.275 4.125 18.638 4.487Q19 4.85 19 5.375V9.3L20.9 11Q21.225 11.275 21.075 11.688Q20.925 12.1 20.475 12.1H19V18.725Q19 19.25 18.638 19.613Q18.275 19.975 17.75 19.975H12.8V14.275Q12.8 14.275 12.8 14.275Q12.8 14.275 12.8 14.275H11.2Q11.2 14.275 11.2 14.275Q11.2 14.275 11.2 14.275ZM7.275 17.7H8.925V13.2Q8.925 12.7 9.288 12.325Q9.65 11.95 10.175 11.95H13.825Q14.35 11.95 14.713 12.325Q15.075 12.7 15.075 13.2V17.7H16.725V10.325L12 6.1L7.275 10.325ZM9.925 10.425H14.075Q14.075 9.6 13.463 9.025Q12.85 8.45 12 8.45Q11.15 8.45 10.538 9.025Q9.925 9.6 9.925 10.425ZM10.175 11.95H12H13.825H10.175Z"/></svg>
